packages/web/app/assets/images/approved_circle.svg

<svg fill="none" height="31" viewBox="0 0 31 31" width="31" xmlns="http://www.w3.org/2000/svg"><circle cx="15.5" cy="15.5" fill="#fff" r="15.5"/><path d="m15.5 0c-8.525 0-15.5 6.975-15.5 15.5s6.975 15.5 15.5 15.5 15.5-6.975 15.5-15.5-6.975-15.5-15.5-15.5zm8.6542 11.2375-10.3334 10.3333c-.2583.2584-.5166.3875-.9041.3875s-.6459-.1291-.9042-.3875l-5.16667-5.1666c-.51666-.5167-.51666-1.2917 0-1.8084.51667-.5166 1.29167-.5166 1.80834 0l4.26253 4.2625 9.4291-9.42913c.5167-.51667 1.2917-.51667 1.8084 0 .5166.51666.5166 1.29163 0 1.80833z" fill="#25d366"/></svg>

<svg width="31" height="31" viewBox="0 0 31 31" fill="none" xmlns="http://www.w3.org/2000/svg">
<circle cx="15.5" cy="15.5" r="15.5" fill="white"/>
<path d="M15.5 0C6.975 0 0 6.975 0 15.5C0 24.025 6.975 31 15.5 31C24.025 31 31 24.025 31 15.5C31 6.975 24.025 0 15.5 0ZM24.1542 11.2375L13.8208 21.5708C13.5625 21.8292 13.3042 21.9583 12.9167 21.9583C12.5292 21.9583 12.2708 21.8292 12.0125 21.5708L6.84583 16.4042C6.32917 15.8875 6.32917 15.1125 6.84583 14.5958C7.3625 14.0792 8.1375 14.0792 8.65417 14.5958L12.9167 18.8583L22.3458 9.42917C22.8625 8.9125 23.6375 8.9125 24.1542 9.42917C24.6708 9.94583 24.6708 10.7208 24.1542 11.2375Z" fill="#25D366"/>
</svg>
